components/2.0/icon/icons/icon-text-options-22px.svg

<svg width="22" height="22" xmlns="http://www.w3.org/2000/svg"><g fill="#3D4752" fill-rule="evenodd"><path d="M9 3H2v5h1c0-2 .8-3 3-3h2v10.8c0 2-2 2.2-3 2.2v1h8v-1c-1 0-3-.2-3-2.2V5h2c2.2 0 3 1 3 3h1V3H9z"/><path d="M12 11h8l-4 4-4-4z"/></g></svg>

<?xml version="1.0" encoding="UTF-8" standalone="no"?>
<svg width="22px" height="22px" viewBox="0 0 22 22" version="1.1" xmlns="http://www.w3.org/2000/svg" xmlns:xlink="http://www.w3.org/1999/xlink" xmlns:sketch="http://www.bohemiancoding.com/sketch/ns">
    <!-- Generator: Sketch 3.4.4 (17249) - http://www.bohemiancoding.com/sketch -->
    <title>icon-text-options-22px</title>
    <desc>Created with Sketch.</desc>
    <defs></defs>
    <g id="22px" stroke="none" stroke-width="1" fill="none" fill-rule="evenodd" sketch:type="MSPage">
        <g id="icon-text-options-22px" sketch:type="MSArtboardGroup" fill="#3D4752">
            <path d="M9,3 L2,3 L2,8 L3,8 C3,6 3.8,5 6,5 L8,5 L8,15.8 C8,17.8 5.9,18 5,18 L5,19 L9,19 L13,19 L13,18 C12,17.9 10,17.8 10,15.8 L10,5 L12,5 C14.2,5 15,6 15,8 L16,8 L16,3 L9,3 L9,3 Z" id="Shape" sketch:type="MSShapeGroup"></path>
            <path d="M12,11 L20,11 L16,15 L12,11 Z" id="Shape" sketch:type="MSShapeGroup"></path>
        </g>
    </g>
</svg>
